src/topics/icons/nuodb.svg

<svg height="179" preserveAspectRatio="xMidYMid" viewBox="0 0 256 179" width="256" xmlns="http://www.w3.org/2000/svg"><path d="m225.82768 170.581452-13.282806-.790461-29.570589-80.0320165-35.219014 41.2197765-13.934783 3.478027-71.3492025 44.193502 13.8422563-45.045851.0361529-.205275-36.5135315 5.127579 40.4247808-77.8113736 38.359411-25.1648421-118.620355-35.5505173 164.052858 19.2314836-.042893 28.3585491 5.613498 1.6446488 41.352745 12.0879234 12.10508 90.1027331 32.918712-21.433744z" fill="#b5d118" transform="matrix(1 0 0 -1 0 178.65028)"/></svg>

<?xml version="1.0" encoding="UTF-8" standalone="no"?>
<svg width="256px" height="179px" viewBox="0 0 256 179" version="1.1" xmlns="http://www.w3.org/2000/svg" xmlns:xlink="http://www.w3.org/1999/xlink" preserveAspectRatio="xMidYMid">
    <g>
        <path d="M225.82768,170.581452 L212.544874,169.790991 L182.974285,89.7589745 L147.755271,130.978751 L133.820488,134.456778 L62.4712855,178.65028 L76.3135418,133.604429 L76.3496947,133.399154 L39.8361632,138.526733 L80.260944,60.7153594 L118.620355,35.5505173 L-1.42108547e-14,0 L164.052858,19.2314836 L164.009965,47.5900327 L169.623463,49.2346815 L210.976208,61.3226049 L223.081288,151.425338 L256,129.991594 L225.82768,170.581452" fill="#B5D118" transform="translate(128.000000, 89.325140) scale(1, -1) translate(-128.000000, -89.325140) "></path>
    </g>
</svg>
